X:1
T:I Walk with the King
T:I Walk with the King
T:Bentley DeForest Ackley
T:James Rowe, 1910
T:Public Domain Courtesy of the Cyber Hymnal™
T:Public Domain Courtesy of the Cyber Hymnal™
C:Bentley DeForest Ackley
Z:Public Domain
Z:Courtesy of the Cyber Hymnal™
%%score ( 1 2 ) ( 3 4 )
L:1/8
Q:1/4=85
M:6/8
K:G
V:1 treble 
V:2 treble 
V:3 bass 
V:4 bass 
V:1
 [B,D] | [DB][DA][DG] [CA][CG][CE] | [CD][CE][CF] [B,G]2 [GB] | [Gd][Ge][Gd] [Gd][GB]G | %4
w: In|sor- row I wan- dered, my|spir- it op- pressed, But|now I am hap- py— se-|
w: For|years in the fet- ters of|sin I was bound, The|world could not help me— no|
w: O|soul near des- pair in the|low- lands of strife, Look|up and let Je- sus come|
 [GA][GB][G^c] [Fd]2 [Gd] | [Fe][Fc][Fe] [Gd][GB][Gd] | [Fc][FA][Fc] [GB]2 D | EFG AGA | %8
w: cure- ly I rest; From|morn- ing till ev- ening glad|car- ols I sing, And|this is the rea- son— I|
w: com- fort I found; But|now like the birds and the|sun- beams of spring, I’m|free and re- joic- ing— I|
w: in- to your life; The|joy of sal- va- tion to|you He would bring— Come|in- to the sun- light and|
 BBB !fermata![Fd]2 ||"^Refrain" D | D[DF][FA] [Fc][FB]>[FA] | [DG] [GB]4 D | %12
w: walk with the King.||||
w: walk with the King.|I|walk with the King, hal- le-|lu- jah! I|
w: walk with the King.||||
 D[DF][FA] [Fc][Fe]>[Fd] | [Gd]3- [Gd]2 D | [GB]A[GB] [Fc]2 [Fc] | %15
w: |||
w: walk with the King, praise His|name! * No|long- er I roam, my|
w: |||
 [Gd][G^c][Gd] !fermata![Ge]2 [Ge] | [Gd]>[GB]G [Fd]>[FA][FB] | [DG]3- [DG]2 |] %18
w: |||
w: soul fac- es home, I|walk and I talk with the|King. *|
w: |||
V:2
 x | x6 | x6 | x5 G | x6 | x6 | x5 D | EFG AGA | BBB x2 || D | D x5 | x5 D | D x5 | x5 D | x A x4 | %15
 x6 | x2 G x3 | x5 |] %18
V:3
 [G,,G,] | [G,,G,][A,,F,][B,,G,] [C,E,][C,E,][C,G,] | [D,F,][D,G,][D,A,] [G,,G,]2 [G,D] | %3
 [G,B,][G,C][G,B,] [G,B,][G,D][G,B,] | [E,^C][E,C][A,,A,] [D,A,]2 [D,B,] | %5
 [D,C][D,A,][D,C] [D,B,][D,D][D,B,] | [D,A,][D,D][D,D] [G,D]2 D, | E,F,G, A,G,A, | %8
 B,B,B, !fermata![D,A,]2 || [D,F,] | [D,F,][D,A,][D,C] [D,E][D,D]>[D,C] | [G,B,] [G,D]4 [D,F,] | %12
 [D,F,][D,A,][D,C] [D,A,][D,C]>[D,C] | [G,B,]3- [G,B,]2 [G,B,] | [G,D][F,D][G,D] [A,D]2 [A,D] | %15
 [B,D][^A,E][B,D] !fermata!C2 [^C,A,] | [D,B,]>[D,D][D,B,] [D,A,]>[D,C][D,D] | [G,B,]3- [G,B,]2 |] %18
V:4
 x | x6 | x6 | x6 | x6 | x6 | x5 D, | E,F,G, A,G,A, | B,B,B, x2 || x | x6 | x6 | x6 | x6 | x6 | %15
 x3 ^C2 x | x6 | x5 |] %18

